icons/svg/16x16/private browsing/filled.svg

<svg width="16" height="16" fill="none" xmlns="http://www.w3.org/2000/svg">
  <path fill-rule="evenodd" clip-rule="evenodd" d="M16 11c0 2-1.75 4-4 4-1.777 0-3.389-.817-4-1.714C7.389 14.183 5.777 15 4 15c-2.25 0-4-2-4-4 3.777 1.768 5.598-2 8-2s4.223 3.768 8 2zM3.5 4C4.327 4 5 4.673 5 5.5S4.327 7 3.5 7 2 6.327 2 5.5 2.673 4 3.5 4zm9 0c.827 0 1.5.673 1.5 1.5S13.327 7 12.5 7 11 6.327 11 5.5 11.673 4 12.5 4zm-9 5A3.5 3.5 0 007 5.5a1 1 0 012 0A3.5 3.5 0 1012.5 2a3.479 3.479 0 00-2.61 1.189A2.978 2.978 0 008 2.5c-.72 0-1.372.266-1.89.689A3.479 3.479 0 003.5 2a3.5 3.5 0 100 7z" fill="#000"/>
</svg>

<svg xmlns="http://www.w3.org/2000/svg" width="16" height="16" viewBox="0 0 16 16">
  <path fill-rule="evenodd" d="M16,11 C16,13 14.25,15 12,15 C10.223,15 8.611,14.183 8,13.286 C7.389,14.183 5.777,15 4,15 C1.75,15 0,13 0,11 C3.777,12.768 5.598,9 8,9 C10.402,9 12.223,12.768 16,11 M3.5,4 C4.327,4 5,4.673 5,5.5 C5,6.327 4.327,7 3.5,7 C2.673,7 2,6.327 2,5.5 C2,4.673 2.673,4 3.5,4 M12.5,4 C13.327,4 14,4.673 14,5.5 C14,6.327 13.327,7 12.5,7 C11.673,7 11,6.327 11,5.5 C11,4.673 11.673,4 12.5,4 M3.5,9 C5.433,9 7,7.433 7,5.5 C7,4.948 7.448,4.5 8,4.5 C8.552,4.5 9,4.948 9,5.5 C9,7.433 10.567,9 12.5,9 C14.433,9 16,7.433 16,5.5 C16,3.567 14.433,2 12.5,2 C11.457,2 10.531,2.466 9.89,3.189 C9.372,2.766 8.72,2.5 8,2.5 C7.28,2.5 6.628,2.766 6.11,3.189 C5.469,2.466 4.543,2 3.5,2 C1.567,2 0,3.567 0,5.5 C0,7.433 1.567,9 3.5,9"/>
</svg>
